www/assets/icons/signpost.svg

<svg xmlns="http://www.w3.org/2000/svg" width="24" height="24" viewBox="0 0 24 24" fill='currentColor'><path d="M13 10h5l3-3-3-3h-5V2h-2v2H4v6h7v2H6l-3 3 3 3h5v4h2v-4h7v-6h-7z"/></svg>

<svg width="24" height="24" viewBox="0 0 24 24" xmlns="http://www.w3.org/2000/svg" fill='currentColor'><path d="M13 10H18L21 7L18 4H13V2H11V4H4V10H11V12H6L3 15L6 18H11V22H13V18H20V12H13V10Z"/></svg>
